X: 1
T: Shottish 12
T: Schottis efter Erik Westman, Hack\aas
S: Erik Westman, Hack\aas (1883-1970
N: Arr. Sven Rydh
O: Scandinavia
M: 4/4
L: 1/8
K: D
  A \
|: f4 (d3B) | (A>B) A>G F2 A>d \
| (c>d) e>f (g>A) B>c |1,3 d>e f>g a2 a2 \
:|2,4 d2 d2 d2 "fine"z :|[K:A]
  f \
|: (e>f) e>f (e>c) (A>c) | (e>a) e>c A2 c>c \
| [c2E2] B>B E2 (G>B) |1,3 (B>A) (c>e) a2 a2 \
:|2,4 (B>A) c>B A3 "d.C"z :|
